X:1
T:Levallois, 87.87 D
T:Levallois, 87.87 D
T:John Daniel Patton, 1902
T:Public Domain Courtesy of the Cyber Hymnal™
C:John Daniel Patton, 1902
Z:Public Domain
Z:Courtesy of the Cyber Hymnal™
%%score 1 2
L:1/8
Q:1/4=90
M:3/4
K:F
V:1 treble 
V:2 bass 
V:1
 [A,C][A,F] | [CA]3 [DB] [B,G][CA] | [A,F]2 [A,C]2 [G,E][A,F] | [DB]3 [CA] [=B,D][B,D] | %4
 [B,G]4 [A,C][A,F] | [CA]3 [DB] [B,G][CA] | [A,F]2 [A,C]2 [A,F][CA] | [Dc]3 [_DB] [CA][B,G] | %8
 [A,F]4 [Ac][Ac] | [Bc]3 [Bc] [Bd][Bc] | [Ac]2 [FA]2 [Ac][Ac] | [Bc]3 [Bc] [Bd][Bc] | %12
 [Ac]4 [FA][Ac] | [Af]3 [FA] [Fc][F_e] | [F_e]2 [Fd]2 [Fd][Fd] | [Fc]3"^riten." [FA] [EA][CG] | %16
 [CF]4 |] %17
V:2
 z2 | (F,,C, [F,,F,]) z3 | (F,,C,) [F,,F,]2 z2 | (B,,F, [B,,B,]) z3 | [C,,C,]4 z2 | %5
 (F,,C, [F,,F,]) z3 | (F,,C,) [F,,F,]2 z2 | [B,,F,]3 z [C,F,][C,E,] | [F,,F,]4 [D,F][D,F] | %9
 ([C,E][C,E] [E,C])[G,C] [C,E][C,E] | [F,F]2 [F,C]2 [F,F][F,F] | %11
 ([C,E][C,E] [E,C])[G,C] [C,E][C,E] | [F,F]4 [F,C][F,C] | ([F,C][F,C] [F,C])[F,C] [A,,C][A,,C] | %14
 [B,,B,]2 [B,,B,]2 [=B,,^G,][B,,G,] | [C,A,]3 [C,C] [C,C][C,B,] | [F,,F,A,]4 |] %17

